logo/bevean3.svg

<svg width="50" height="50" viewBox="0 0 50 50" fill="none" xmlns="http://www.w3.org/2000/svg">
<g id="Logo Bevean 3">
<g id="Vector">
<path fill-rule="evenodd" clip-rule="evenodd" d="M36.7851 29.9445L36.9697 30.5494C37.1531 31.1644 37.321 31.7724 37.4711 32.3705C37.6321 33.0138 37.7162 33.6733 37.7221 34.3429C37.7271 34.8415 37.6872 35.3412 37.6042 35.8406C37.9232 36.0981 38.2344 36.3856 38.4832 36.7349C38.8719 37.2798 39.0924 37.9247 38.9627 38.7202C38.9083 39.0525 38.7752 39.3661 38.5384 39.6312C38.3276 39.8721 38.0439 40.0558 37.6744 40.1567C37.4196 40.2283 37.129 40.2608 36.8026 40.2596L30.8618 40.242L23.274 40.2372C21.8373 40.2416 20.9795 40.2148 20.7046 40.1633L20.6507 40.152C18.5238 39.7245 16.4606 37.6274 14.7364 35.0296C12.4374 31.5672 10.6547 27.116 10.218 24.7816C9.99152 23.5731 9.90686 22.0258 10.1333 20.5812C10.3005 19.5103 10.6389 18.4834 11.2097 17.6612L11.2581 17.597C11.8817 16.7301 12.7505 16.1004 13.9301 15.8801C14.4888 15.7753 15.1147 15.767 15.8098 15.8757L15.8974 15.8935C17.0617 16.1797 17.9293 16.9395 18.5619 17.8889L18.602 17.9542C19.2296 18.9222 19.6179 20.0908 19.8268 21.1116C20.7021 19.0815 22.0637 16.7052 23.1831 14.7497L23.549 14.11L23.524 14.0784C23.0185 13.4568 22.7534 12.825 22.6897 12.2518C22.6328 11.7365 22.731 11.2601 22.9609 10.8575C23.1964 10.4464 23.5627 10.1262 24.0318 9.93295C24.5168 9.73332 25.1126 9.67694 25.7714 9.81127C26.9402 10.0498 27.4677 10.5699 27.883 10.9798C27.9588 11.0548 27.8364 11.1439 27.9265 11.1286L29.6901 10.8328L30.5445 10.6795C30.5898 10.6698 30.7668 10.4858 30.9567 10.2867C31.6457 9.565 32.4242 8.74755 34.051 9.07395L34.1667 9.10416C35.1396 9.3433 35.2655 9.98094 35.1087 10.7656C35.0813 10.9217 35.0287 11.0833 34.9768 11.2456L34.9046 11.4927C34.7321 12.2257 35.1936 12.7562 35.8117 13.4651L35.8908 13.5566C36.4853 14.2431 36.9116 15.1183 37.1338 16.0369C37.3579 16.9582 37.3827 17.9373 37.1755 18.8205C37.0017 19.5658 36.681 21.0122 36.5139 22.232C36.4159 22.9491 36.3655 23.575 36.4272 23.8723L36.4327 23.9002C36.4956 24.1586 36.7312 24.4988 36.983 24.8616C37.5964 25.7466 38.2792 26.7328 38.1461 28.3058L38.1423 28.3394C38.129 28.4777 38.1019 28.6095 38.0656 28.7338C37.9026 29.2859 37.5587 29.6328 37.1206 29.8302C37.0116 29.8791 36.8996 29.9168 36.7851 29.9445Z" fill="#FEEFE0"/>
<path d="M35.5381 28.8687C35.3994 28.8274 35.3535 28.8752 35.4003 29.0118C35.8264 30.2513 36.1856 31.4537 36.4785 32.6186C36.7654 33.7654 36.7763 34.9282 36.5112 36.1072C36.4821 36.2374 36.5619 36.3238 36.7126 36.438C37.399 36.9593 38.1123 37.5816 37.9536 38.556C37.907 38.8423 37.746 39.0789 37.4062 39.1719C37.2366 39.2179 37.0367 39.2401 36.807 39.2391C33.4785 39.2228 28.9673 39.2155 23.274 39.2166C21.892 39.2166 21.0981 39.1972 20.8926 39.1581C16.5155 38.3421 11.9432 28.4375 11.223 24.5933C10.649 21.533 11.0603 16.1661 15.6533 16.8851C17.7038 17.3912 18.6284 19.9757 18.9093 21.7749C19.1962 23.6161 17.3494 25.7518 18.1429 31.3274C18.2464 32.0545 18.5823 31.9888 18.5961 31.464C18.6808 28.2674 19.3119 25.3132 20.4449 22.3068C21.3384 19.9408 23.2152 16.765 24.5291 14.4592C24.7083 14.1439 24.5909 13.7705 24.3346 13.4569C23.033 11.8777 23.8655 10.4652 25.5673 10.8124C27.2167 11.1494 27.2022 12.2882 28.0949 12.1381C29.5675 11.8934 30.451 11.7418 30.7446 11.6837C31.6947 11.494 32.1159 9.73132 33.8506 10.0789C34.3646 10.1818 34.0229 10.7707 33.9078 11.2601C33.6045 12.5376 34.2624 13.2418 35.1183 14.2249C36.0945 15.3507 36.52 17.1325 36.1789 18.5879C35.8882 19.8278 35.2002 22.988 35.4265 24.0804C35.681 25.3054 37.2927 26.2535 37.1255 28.2213C37.0515 29.1079 36.1856 29.0599 35.5381 28.8687ZM33.3308 16.5598C33.9809 16.1145 35.1022 16.4497 34.8913 15.9909C34.5398 15.2165 33.9781 14.3228 33.3929 13.6774C32.4186 12.603 29.822 13.1834 28.1239 14.0262C26.6134 14.7761 25.8474 15.5273 24.8858 17.2723C24.5291 17.9192 24.1421 18.5148 23.908 19.079C23.7252 19.5192 23.964 20.3538 24.6994 19.6436C25.7404 18.6386 26.3855 17.2911 27.3528 16.2999C28.2379 15.394 30.3126 14.2456 31.2406 15.747C31.4953 16.1585 31.7038 16.4337 31.4542 16.8659C31.3617 17.0274 31.15 17.0591 30.9423 17.09C30.5531 17.147 30.305 17.313 30.7441 17.6913C31.4028 18.2589 32.8317 19.1058 33.6668 17.9544C33.8878 17.6491 33.5112 17.4888 33.2481 17.1751C33.0881 16.9851 33.129 16.6922 33.3308 16.5598Z" fill="#4D3519"/>
</g>
</g>
</svg>

<svg xmlns="http://www.w3.org/2000/svg" width="50" height="50" fill="none"><path fill="#FEEFE0" fill-rule="evenodd" d="m36.785 29.945.185.604c.183.615.351 1.223.501 1.822.161.643.245 1.302.251 1.972.005.498-.035.998-.118 1.498.32.257.63.545.88.894.388.545.608 1.19.479 1.985a1.774 1.774 0 0 1-.425.911c-.21.241-.494.425-.864.526a3.19 3.19 0 0 1-.871.103l-5.941-.018-7.588-.005c-1.437.005-2.294-.022-2.57-.074l-.053-.011c-2.127-.428-4.19-2.525-5.915-5.122-2.299-3.463-4.081-7.914-4.518-10.248-.226-1.209-.311-2.756-.085-4.2.168-1.072.506-2.099 1.077-2.92l.048-.065c.624-.867 1.493-1.497 2.672-1.717a5.532 5.532 0 0 1 1.88-.004l.087.018c1.165.286 2.032 1.045 2.665 1.995l.04.065c.628.968 1.016 2.137 1.225 3.158.875-2.03 2.237-4.407 3.356-6.362l.366-.64-.025-.032c-.506-.621-.77-1.253-.834-1.826a2.274 2.274 0 0 1 .27-1.395 2.16 2.16 0 0 1 1.072-.924c.485-.2 1.08-.256 1.74-.122 1.168.239 1.696.759 2.111 1.169.076.075-.047.164.044.149l1.763-.296.854-.153c.046-.01.223-.194.413-.393.689-.722 1.467-1.54 3.094-1.213l.116.03c.973.24 1.099.877.942 1.662-.028.156-.08.317-.132.48l-.072.247c-.173.733.289 1.263.907 1.972l.079.092c.594.686 1.02 1.561 1.243 2.48.224.921.249 1.9.041 2.784-.173.745-.494 2.191-.661 3.411-.098.717-.149 1.343-.087 1.64l.006.028c.063.259.298.599.55.962.613.885 1.296 1.87 1.163 3.444l-.004.033c-.013.139-.04.27-.076.395a1.667 1.667 0 0 1-.945 1.096 1.921 1.921 0 0 1-.336.115Z" clip-rule="evenodd"/><path fill="#4D3519" d="M35.538 28.869c-.139-.042-.184.006-.138.143.426 1.24.786 2.442 1.078 3.607a7.45 7.45 0 0 1 .033 3.488c-.029.13.05.217.202.331.686.521 1.4 1.144 1.24 2.118-.046.286-.207.523-.547.616-.17.046-.37.068-.599.067-3.329-.016-7.84-.023-13.533-.022-1.382 0-2.176-.02-2.381-.059-4.378-.816-8.95-10.72-9.67-14.565-.574-3.06-.163-8.427 4.43-7.708 2.05.506 2.975 3.09 3.256 4.89.287 1.841-1.56 3.977-.766 9.552.103.727.44.662.453.137.085-3.197.716-6.15 1.849-9.157.893-2.366 2.77-5.542 4.084-7.848.18-.315.062-.688-.194-1.002-1.302-1.58-.47-2.992 1.232-2.645 1.65.337 1.635 1.476 2.528 1.326 1.473-.245 2.356-.396 2.65-.454.95-.19 1.37-1.953 3.106-1.605.514.103.172.692.057 1.181-.303 1.278.354 1.982 1.21 2.965.976 1.126 1.402 2.908 1.06 4.363-.29 1.24-.978 4.4-.752 5.492.255 1.225 1.867 2.174 1.7 4.141-.075.887-.94.839-1.588.648Zm-2.207-12.31c.65-.445 1.771-.11 1.56-.568-.351-.774-.913-1.668-1.498-2.314-.974-1.074-3.571-.494-5.27.35-1.51.75-2.276 1.5-3.237 3.245-.357.647-.744 1.243-.978 1.807-.183.44.056 1.275.791.565 1.041-1.005 1.686-2.353 2.654-3.344.885-.906 2.96-2.054 3.888-.553.254.412.463.687.213 1.119-.092.161-.304.193-.512.224-.389.057-.637.223-.198.601.659.568 2.088 1.415 2.923.263.22-.305-.156-.465-.419-.779a.42.42 0 0 1 .083-.615Z"/></svg>
